synths/sSUI.svg

<svg width="42" height="42" viewBox="0 0 42 42" fill="none" xmlns="http://www.w3.org/2000/svg">
<g clip-path="url(#clip0_7277_57871)">
<mask id="mask0_7277_57871" style="mask-type:alpha" maskUnits="userSpaceOnUse" x="0" y="0" width="42" height="42">
<circle cx="21" cy="21" r="21" transform="matrix(-1 0 0 1 42 0)" fill="url(#paint0_linear_7277_57871)"/>
</mask>
<g mask="url(#mask0_7277_57871)">
<circle cx="21" cy="21" r="21" transform="matrix(-1 0 0 1 42 0)" fill="#34EDB3"/>
<circle cx="18.2" cy="18.2" r="18.2" transform="matrix(-1 0 0 1 39.2 2.80005)" fill="white"/>
</g>
<circle cx="16.1" cy="16.1" r="16.1" transform="matrix(-1 0 0 1 37.1 4.90002)" fill="#0B0B22"/>
<g clip-path="url(#clip1_7277_57871)">
<circle cx="20.9999" cy="21" r="16.1" fill="#4CA3FF"/>
<path fill-rule="evenodd" clip-rule="evenodd" d="M25.602 19.027C26.4015 20.0075 26.879 21.2501 26.879 22.6008C26.879 23.9716 26.3868 25.2302 25.5657 26.2174L25.495 26.3023L25.4763 26.1943C25.4603 26.1025 25.4416 26.0097 25.4198 25.9162C25.0089 24.1505 23.67 22.6363 21.4664 21.4103C19.9783 20.5847 19.1265 19.5905 18.9029 18.461C18.7585 17.7306 18.8659 16.9969 19.0734 16.3685C19.2808 15.7404 19.5894 15.214 19.8516 14.8972L20.7089 13.8719C20.8593 13.6921 21.1406 13.6921 21.291 13.8719L25.602 19.027ZM26.9578 18.0028L21.2123 11.1317C21.1026 11.0005 20.8972 11.0005 20.7875 11.1317L15.0418 18.0025L15.0233 18.0256C13.966 19.3087 13.3333 20.9393 13.3333 22.7144C13.3333 26.8485 16.7657 30.2 20.9999 30.2C25.2342 30.2 28.6666 26.8485 28.6666 22.7144C28.6666 20.9393 28.0339 19.3087 26.9766 18.0256L26.9578 18.0028ZM16.4166 19.0049L16.9308 18.39L16.9463 18.5035C16.9586 18.5934 16.9735 18.6837 16.9912 18.7744C17.3237 20.4807 18.5116 21.9034 20.4976 23.0053C22.2239 23.9661 23.229 25.071 23.5186 26.2829C23.6394 26.7886 23.661 27.2862 23.6086 27.7212L23.6054 27.7482L23.5805 27.76C22.8014 28.1323 21.9255 28.3412 20.9997 28.3412C17.7528 28.3412 15.1205 25.7712 15.1205 22.6008C15.1205 21.2396 15.6058 19.9889 16.4166 19.0049Z" fill="white"/>
</g>
</g>
<defs>
<linearGradient id="paint0_linear_7277_57871" x1="21" y1="0" x2="21" y2="61.4091" gradientUnits="userSpaceOnUse">
<stop stop-color="#08021E"/>
<stop offset="1" stop-color="#1F0777"/>
</linearGradient>
<clipPath id="clip0_7277_57871">
<rect width="42" height="42" fill="white"/>
</clipPath>
<clipPath id="clip1_7277_57871">
<rect x="4.8999" y="4.90002" width="32.2" height="32.2" rx="16.1" fill="white"/>
</clipPath>
</defs>
</svg>

<svg xmlns="http://www.w3.org/2000/svg" width="42" height="42" fill="none"><g clip-path="url(#a)"><mask id="c" width="42" height="42" x="0" y="0" maskUnits="userSpaceOnUse" style="mask-type:alpha"><circle cx="21" cy="21" r="21" fill="url(#b)" transform="matrix(-1 0 0 1 42 0)"/></mask><g mask="url(#c)"><circle cx="21" cy="21" r="21" fill="#34EDB3" transform="matrix(-1 0 0 1 42 0)"/><circle cx="18.2" cy="18.2" r="18.2" fill="#fff" transform="matrix(-1 0 0 1 39.2 2.8)"/></g><circle cx="16.1" cy="16.1" r="16.1" fill="#0B0B22" transform="matrix(-1 0 0 1 37.1 4.9)"/><g clip-path="url(#d)"><circle cx="21" cy="21" r="16.1" fill="#4CA3FF"/><path fill="#fff" fill-rule="evenodd" d="M25.602 19.027a5.635 5.635 0 0 1-.036 7.19l-.071.085-.019-.108a5.023 5.023 0 0 0-.056-.278c-.411-1.765-1.75-3.28-3.954-4.506-1.488-.825-2.34-1.82-2.563-2.949-.144-.73-.037-1.464.17-2.092.208-.629.516-1.155.779-1.472l.857-1.025c.15-.18.432-.18.582 0l4.311 5.155Zm1.356-1.024-5.746-6.871a.278.278 0 0 0-.424 0l-5.746 6.87-.019.024a7.345 7.345 0 0 0-1.69 4.688c0 4.135 3.433 7.486 7.667 7.486s7.667-3.351 7.667-7.486a7.345 7.345 0 0 0-1.69-4.688l-.02-.023Zm-10.541 1.002.514-.615.015.113c.013.09.027.18.045.271.333 1.707 1.52 3.13 3.507 4.231 1.726.961 2.731 2.066 3.02 3.278.121.506.143 1.003.09 1.438l-.003.027-.024.012a5.972 5.972 0 0 1-2.581.581c-3.247 0-5.88-2.57-5.88-5.74 0-1.361.486-2.612 1.297-3.596Z" clip-rule="evenodd"/></g></g><defs><clipPath id="a"><path fill="#fff" d="M0 0h42v42H0z"/></clipPath><clipPath id="d"><rect width="32.2" height="32.2" x="4.9" y="4.9" fill="#fff" rx="16.1"/></clipPath><linearGradient id="b" x1="21" x2="21" y1="0" y2="61.409" gradientUnits="userSpaceOnUse"><stop stop-color="#08021E"/><stop offset="1" stop-color="#1F0777"/></linearGradient></defs></svg>
